X: 28632
T: Music In The Glen
R: reel
M: 4/4
K: Gmajor
|:G2BG (3EFG Dc|BDGB AGAB|c2ec BBdB|cABG AGEF|
G2BG (3EFG Dc|BDGB AGAB|cdef ~g3e|1 dcBA G3D:|2 dcBA G3A||
|:BG dG eGdG|BGdB cAFA|BG dG ~e3f|gdBG AGEG|
BG dG ~e3f|g2fg afdf|g2fg (3efg dB|cABG AGEF:|

